X:1
T:6 Songs, Op.7
T:Parole
T:2. Parole
T:Johannes Brahms
T:Joseph von Eichendorff
T:6 Songs, Op.7
T:OpenScore (CC0)
T:OpenScore (CC0)
T:OpenScore (CC0)
C:Johannes Brahms
Z:Joseph von Eichenforff
Z:OpenScore (CC0)
%%score ( 1 2 ) { ( 3 7 8 ) | ( 4 5 6 ) }
L:1/8
Q:1/4=80
M:6/8
K:G
V:1 treble nm="Singstimme\nVoice"
V:2 treble 
V:3 treble nm="Pianoforte"
V:7 treble 
V:8 treble 
V:4 bass 
V:5 bass 
V:6 bass 
V:1
"^Andante con moto" z | z6 | z6 | z6 | z6 | z2 z z2!p! ^A |: %6
w: |||||Sie|
w: ||||||
[Q:1/4=80]"^a tempo"!p! B3/2 B/ B (cB) A | (G2 F) E2 G | x2 G (.A .G .F) | E3 z2 E | %10
w: stand wohl-  am Fen- * ster-|bo- * gen und|sich  trau- rig das|Haar, der|
w: als * der  Früh- ling ge-|kom- * men, die|von Blü- ten ver-|schneit, da|
"^cresc." =F3/2 F/ F (_AB) d | e2 c z2 G | _A3/2!f!!<(! A/ A (Bd) =f!<)! |!>(! e3-!>)!!mp! e2 z | %14
w: Jä- ger war fort- * ge-|zo- gen, der|Jä- ger ihr Lieb- * ster|war. _|
w: hat sie ein Herz sich ge-|nom- men, und|ging in die grü- * ne|Haid. _|
 z6 | z6[Q:1/4=70]"^T"[Q:1/4=65]"^T" |1 z2 z z2!p! ^A :|2 z6[Q:1/4=80] || z2 z z2!p! C |: %19
w: ||Und||Sie|
w: |||||
[Q:1/4=80]!p! (=F>A) G _B A d | c2 A z2 G | G2 G x2 =F | G3 z2 E | (A>c) B!<(! d c!<)! =f | %24
w: legt _ das Ohr an den|Ra- sen, hört|fer- ner fe|Klang, das|sind _ die Re- he, die|
w: A- bends die Wäl- * der|rau- schen, von|fern nur *|Schuss, da|steht _ sie stil- le zu|
 e2 c z2 c |!p! B3/2 B/ B ^c2 A | B2 z z2 A | %27
w: gra- sen am|schat- ti- gen Ber- ges-|hang, am|
w: lau- schen: " das|war mei- nes Lieb- sten|Gruss! das|
[Q:1/4=70]"^dim. poco rit." B3/2[Q:1/4=65] B/ B ^c2 A |1 A2 z z2 =C :|2[Q:1/4=80] A2 z z2 z || %30
w: schat- ti- gen Ber- ges-|hang. Und|Gruss! "|
w: war mei- nes Lieb- sten|||
 z2 z z2 =c ||!p! B3/2 B/ B (cB) A | (G2 F) E2 G | G3/2 G/ G (.A .G .F) | E2 z z2 G | %35
w: Da|spran- gen vom Fels _ die|Quel- * len, da|flo- hen die Vög- lein ins|Tal! " Und|
w: |||||
!<(! G3/2 G/ G!<)!!f! ^c3/2 c/ c | B2 F z2!mp!!<(! F | G3/2 G/ G!<)!!f! e2 e | ^d3- d2 z | %39
w: wo ihr ihn trefft, ihr Ge-|sel- len, o|grüsst mir ihn tau- send|mal, _|
w: ||||
!f!!>(! e3!>)! ^G2 z |!<(! (^c3!<)! !>!^g3-) | g3- g2 f | e3- e2 z | z6 | z6 | z6 | z6 | %47
w: tau- send,|tau- *|* * send|mal! " _|||||
w: ||||||||
 !fermata!z5 |] %48
w: |
w: |
V:2
 x | x6 | x6 | x6 | x6 | x6 |: B2 B c B A | x6 | G3/2 G/ x4 | x6 | x3 _A B d | x6 | x6 | x6 | x6 | %15
w: |||||||||||||||
w: ||||||||Welt war|||||||
 x6 |1 x6 :|2 x6 || x6 |: =F3/2 A/ G (_BA) x | x6 | x3 A3/2 G/ =F | x6 | x6 | x6 | x6 | x6 | x6 |1 %28
w: ||||||f * *|||||||
w: ||||||* noch  ein|||||||
 x6 :|2 x6 || x6 || x6 | x6 | x6 | x6 | x6 | x6 | x6 | x6 | x6 | x6 | x6 | x6 | x6 | x6 | x6 | x6 | %47
w: |||||||||||||||||||
w: |||||||||||||||||||
 x5 |] %48
w: |
w: |
V:3
 z | z (C/E/G/[ce]/) (!>![ce]2 [Ec]) | z (C/E/G/[ce]/) (!>![ce]2 [Ec]) | %3
 z (E/G/c/[eg]/) (!>![eg]2 [ce]) | z (E/G/^A/[eg]/) (!>![eg]2!>(! [Ae]-) | [Ae]3- [Ae]2!>)! z |: %6
!p!!ped! (B/G/E/[I:staff +1] B,/G,/E,/ .B,,)[I:staff -1] z/ z/ z!ped-up! | %7
 (G/E/B,/[I:staff +1] B,/A,/^D,/ .B,,)[I:staff -1] z/ z/ B | %8
 (B/G/E/[I:staff +1] B,/G,/E,/ .B,,)[I:staff -1] z z | %9
 (G/E/B,/[I:staff +1] A,/^D,/B,,/ .C,)[I:staff -1] z/ z/ z | =F/C/A,/ z/ z _A/F/D/ z/ z | %11
 G/E/C/ z/ z G/E/C/ z/ z | _A/=F/C/ z/ z B/A/F/ z/ z | c/!ped!G/E/ z/ z G/E/C/ z/ z | %14
 z (E/G/c/[eg]/) (!>![eg]2 [ce])!ped-up! | %15
 z!ped!!p! (E/"_rit."G/^A/!>(![eg]/) (!>![eg]2 [Ae]-)!>)! |1 [Ae]3- [Ae]2 z!ped-up! :|2 %17
 [^Ae]3 z/!p!!<(! (C/c/C/c/C/!<)! ||!>(! c/C/c/C/c/C/ c/C/c/C/c/!>)!C/) |: %19
 c/C/c/C/c/C/ c/C/c/C/c/C/ | c/C/c/C/c/C/ c/C/c/C/c/C/ | c/C/c/C/c/C/ c/C/c/C/c/C/ | %22
 c/C/c/C/c/C/ c/C/d/D/e/E/ | e/E/e/E/e/E/ e/E/e/E/e/E/ | e/E/e/E/e/E/ e/E/e/E/e/E/ | %25
 e/E/e/E/e/E/ e/E/e/E/e/E/ | [Be]/E/[Be]/E/[Be]/E/ [^ce]/E/[ce]/E/[Ae]/E/ | %27
"_dim. poco rit." [Be]/E/e/E/e/E/ e/E/e/E/e/E/ |1 e/E/e/E/e/E/ e/E/d/D/!p!=c/=C/ :|2 %29
 e/!<(!E/e/E/e/E/ e/E/e/E/e/!<)!E/ || e/!>(!E/e/E/e/E/ e/E/d/D/=c/!>)!=C/ || %31
!p! (B/G/E/[I:staff +1] B,/G,/E,/ B,,)[I:staff -1] z/ z/ z | %32
 (G/E/B,/[I:staff +1] B,/A,/^D,/ B,,)[I:staff -1] z/ z/ B | Bz/B/B (.c.B.A) | %34
 G/E/B,/[I:staff +1] A,/^D,/B,,/ C,[I:staff -1] z/ z/ z | G/E/^C/ z/ z ^c/G/E/ z/ z | %36
 B/F/^D/ z/ z B/!mf!F/D/ z/ z | G/E/^C/ z/ z e/^c/G/ z/ z | ^d/^c/F/ z/ z d/^B/F/ z/ z | %39
 e/^G/E/ z/ z G/E/^C/ z/ z | ^c/F/E/ z/ z c/^A/E/ z/ z | B/=A/^D/ z/ z B/A/D/ z/ z | %42
 [B,E^G]2 z z (E/G/B/[e^g]/) | [e^g]3 z (E/^G/^B/[eg]/) | [e^g]3 z (^G/^c/e/[gb]/) | %45
 [^gb]2 [eg] [Be]2 [^GB] |!>(! (!>![^GB]3 [FA]2 G)!>)! | !fermata![B,^G]3 z2 |] %48
V:4
!f! .[C,,G,,] | !>![C,,G,,]3- [C,,G,,]>(G,,C,,/G,,/- | [C,,G,,]3-) [C,,G,,]>(G,,C,,/G,,/- | %3
 [C,,G,,]3-) [C,,G,,]3/2!>(! (^A,3/2!>)! |!p! [C,E,G,A,]6-) | [C,E,G,A,]3- [C,E,G,A,]2 z |: x6 | %7
 x6 | x6 | x6 |"^cresc." C,, z/ A,/=F,/C,/ C,, z/ =B,/_A,/F,/ | C,, z/ C/G,/E,/ _B,, z/ C/G,/E,/ | %12
!<(! _A,, z/ C/_A,/=F,/!<)!!f! =F,, z/ D/=B,/A,/ | x3 x x G,- |!f! [C,E,G,^A,]6- | [C,E,G,A,]6 |1 %16
 [C,G,]3- [C,G,]2 z :|2 [C,G,]3 z2 z || z2 z z2 C, |: %19
!p! [A,,=F,]3/2 [F,A,]/ [C,G,] (.[G,_B,] .[F,A,] .[B,D]) | (!>![A,C]2 [=F,A,]) z2 [F,A,] | %21
 [C,G,]3/2 [C,G,]/ [C,G,] [=F,A,]3/2 [C,G,]/ [A,,F,] | [C,G,]3 z2 E, | %23
 [C,A,]3/2 [A,C]/ [^G,B,]!<(! (.[B,D] .[A,C]!<)! .[D=F]) | ([CE]2 [A,C]) z2!p! [A,C] | %25
 [E,B,]3/2 [E,B,]/ [E,B,] [A,^C]3/2 [E,B,]/ [^C,A,] | %26
 [E,B,]3/2 [E,B,]/ [E,B,] [A,^C]3/2 [E,B,]/ [^C,A,] | %27
 (.[E,B,]3/2 .[E,B,]/ .[E,B,]) [A,^C]2 [A,,^C,A,] |1 [A,,^C,A,]3 z2 =C, :|2 ([A,,-^C,A,-]6 || %30
 [A,,=C,A,]6) || x6 | x6 | B,, z/ B,/G,/E,/ B,, z/ A,/F,/^D,/ | x6 | %35
!<(! ^C, z/ ^A,/G,/E,/!<)!!f! ^A,, z/ ^C/G,/E,/ | B,, z/ B,/F,/^D,/ B,, z/ B,/F,/D,/ | %37
 ^A,, z/ ^C/G,/E,/!f! =A,, z/ C/G,/E,/ | A,, z/ ^C/F,/^D,/ ^G,, z/ ^B,/F,/D,/ | %39
!f! ^C,, z/ ^C/^G,/E,/ ^C, z/ C/G,/E,/ |!<(! ^A,, z/ ^C/F,/E,/!<)! F,, z/ ^A,/F,/E,/ | %41
 B,, z/ B,/=A,/^D,/ B,,, z/ B,/D,/B,,/ |"^marc." .[E,,B,,]z/.[E,,B,,]/!>![E,,B,,]-!f! [E,,B,,]3 | %43
 .[E,,^B,,]z/.[E,,B,,]/!>![E,,B,,]- [E,,B,,]3 | .[E,,^C,]z/.[E,,C,]/!>![E,,C,]- (C,2 =B,,) | %45
!ff! [^G,,E,]2 [B,,E,] [E,^G,]2 [G,B,] | !>![B,^D]3- ([B,-D]2 [B,E]) |!p! !fermata![E,E]3 z2 |] %48
V:5
 x | x6 | x6 | x9/2 ^A,/G,/-E,/- | x6 | x6 |: x6 | x6 | x6 | x6 | x6 | x6 | x6 | %13
 C,, z/ E/C/G,/ E, z/ ^A,/-G,/E,/- | z2 z z3/2 G,,/C,,/G,,/- | [C,,G,,]6 |1 x6 :|2 x6 || x6 |: x6 | %20
 x6 | x6 | x6 | x6 | x6 | x6 | x6 | x6 |1 x6 :|2 x6 || x6 || x6 | x6 | x6 | x6 | x6 | x6 | x6 | %38
 x6 | x6 | x6 | x6 | x6 | x6 | x3 E,,3 | x6 | x6 | x5 |] %48
V:6
 x | x6 | x6 | x5 G, | x6 | x6 |: x6 | x6 | x6 | x6 | x6 | x6 | x6 | x4 x/ ^A,3/2 | x6 | x6 |1 %16
 x6 :|2 x6 || x6 |: x6 | x6 | x6 | x6 | x6 | x6 | x6 | x6 | x6 |1 x6 :|2 x6 || x6 || x6 | x6 | x6 | %34
 x6 | x6 | x6 | x6 | x6 | x6 | x6 | x6 | x6 | x6 | x6 | x6 | x6 | x5 |] %48
V:7
 x | x6 | x6 | x6 | x6 | x6 |: %6
[I:staff +1] B,,[I:staff -1] z/ z/ z (A/F/^D/[I:staff +1] B,/F,/^D,/ | %7
 .B,,)[I:staff -1] z/ z/ z (E/B,/G,/[I:staff +1] B,/G,/E,/ | %8
 .B,,)[I:staff -1] z/ z/ z (c/^D/ z/[I:staff +1] B,/F,/^D,/ | %9
 .B,,)[I:staff -1] z/ z/ z E/_B,/G,/[I:staff +1] G,/E,/C,/ | x6 | x6 | x6 | x6 | x6 | x6 |1 %16
 x4[I:staff -1] x x- :|2 x6 || x6 |: x6 | x6 | x6 | x6 | x6 | x6 | x6 | x6 | x6 |1 x6 :|2 x6 || %30
 x6 ||[I:staff +1] B,,[I:staff -1] z/ z/ z (A/F/^D/[I:staff +1] B,/F,/^D,/ | %32
 B,,)[I:staff -1] z/ z/ z E/B,/G,/[I:staff +1] B,/G,/E,/ |[I:staff -1] B/G/E/ z/ z c/^D/ z z | %34
[I:staff +1] B,,[I:staff -1] z/ z/ z E/_B,/G,/[I:staff +1] G,/E,/C,/ | x6 | x6 | x6 | x6 | x6 | %40
 x6 | x6 | x6 | x6 | x6 | x6 | x6 | x5 |] %48
V:8
 x | x6 | x6 | x6 | x6 | x6 |: x6 | x6 | B>BB (.c.B.A) | (G2 F) E3 | x6 | x6 | x6 | x6 | x6 | x6 |1 %16
 x6 :|2 x6 || x6 |: x6 | x6 | x6 | x6 | x6 | x6 | x6 | x6 | x6 |1 x6 :|2 x6 || x6 || x6 | x6 | x6 | %34
 (G2 F) E3 | x6 | x6 | x6 | x6 | x6 | x6 | x6 | x6 | x6 | x6 | x6 | x6 | x5 |] %48

